X:380
T:Weasel's Revenge
R:polka 32 march
C:Jan Hurst
M:4/4
L: 1/8
Q:1/4=180
K:G
V:1
%Melody
z6 G,F,|E,2 G,F, E,2 G,F,|E,2 E2 B,3A,|G,2 E,2 E,F, G,E,|
F,2 D,2 D,2 G,F,|E,2 G,F, E,2 G,F,|E,2 E2 B,3A,|G,2 E,2 F,E, D,2|
E,6 G,F,|E,2 G,F, E,2 G,F,|E,2 E2 B,3A,|G,2 E,2 E,F, G,E,|
F,2 D,2 D,2 G,F,|E,2 G,F, E,2 G,F,|E,2 E2 B,3A,|G,2 E,2 F,E, D,2|
E,4 z4|B,2 E2 E2 FG|F2 D2 D2 GF|E2 B,2 B,2 CB,|
A,G, F,G, A,B, A,F,|B,2 E2 E2 FG|F2 D2 D2 GF|E2 B,2 A,2 F,2|
E,4 z4|B,2 E2 E2 FG|F2 D2 D2 GF|E2 B,2 B,2 CB,|
A,G, F,G, A,B, A,F,|B,2 E2 E2 FG|F2 D2 D2 GF|E2 B,2 A,2 F,2|
E,6 G,F,|
V:2
%Chords
z6 B,A,|G,2 B,A, G,2 B,A,|G,2 E2 B,3A,|G,2 E,2 E,F, G,E,|
A,2 F,2 F,2 B,A,|G,2 B,A, G,2 B,A,|G,2 E2 B,3A,|G,F, E,D, E,F, G,A,|
B,6 B,A,|G,2 B,A, G,2 B,A,|G,2 E2 B,3A,|G,2 E,2 E,F, G,E,|
A,2 F,2 F,2 B,A,|G,2 B,A, G,2 B,A,|G,2 E2 B,3A,|G,F, E,D, E,F, G,A,|
E,4

